X: 082
T: Lady Charlotte Campbells Reel
R: reel
M: C|
L: 1/8
Z: 2012 John Chambers <jc:trillian.mit.edu>
B: J. Anderson "Budget of Strathspeys, Reels and Country Dances" (Early 1800s) p.8 #2
F: http://imslp.org/wiki/Anderson%27s_Budget_of_Strathspeys,_Reels_and_Country_Dances_(Various)
K: D
A |\
d3a fdaf | gfed cAec | d2ba fdaf | cAge fdd :|
f |\
(a2fd') b2(Bg) | (e2cc') a2(Ff) | (d2Bb) gfed | cAge fdda |
(fd)d'c' (ba).g.f | (ec).c'.b (ag).f.e | (fd).b.a (gf).e.d | cAge fdd |]

%%sep 2 1 500
%%sep 1 1 500

